icons/op-clipboard-24.svg

<svg width="24" height="24" viewBox="0 0 24 24" fill="none" xmlns="http://www.w3.org/2000/svg">
<path fill-rule="evenodd" clip-rule="evenodd" d="M8.65217 4.59259C8.65217 4.26531 8.9247 4 9.26087 4H14.7391C15.0753 4 15.3478 4.26531 15.3478 4.59259V5.18519H18.3913C18.7275 5.18519 19 5.4505 19 5.77778V19.4074C19 19.7347 18.7275 20 18.3913 20H5.6087C5.27252 20 5 19.7347 5 19.4074V5.77778C5 5.4505 5.27252 5.18519 5.6087 5.18519H8.65217V4.59259ZM15.3478 8.74074V6.37037H17.7826V18.8148H6.21739V6.37037H8.65217V8.74074C8.65217 9.06802 8.9247 9.33333 9.26087 9.33333H14.7391C15.0753 9.33333 15.3478 9.06802 15.3478 8.74074ZM9.86957 5.18519V8.14815H14.1304V5.18519H9.86957ZM9 12.25C8.58579 12.25 8.25 12.5858 8.25 13C8.25 13.4142 8.58579 13.75 9 13.75H15C15.4142 13.75 15.75 13.4142 15.75 13C15.75 12.5858 15.4142 12.25 15 12.25H9ZM9 15.25C8.58579 15.25 8.25 15.5858 8.25 16C8.25 16.4142 8.58579 16.75 9 16.75H15C15.4142 16.75 15.75 16.4142 15.75 16C15.75 15.5858 15.4142 15.25 15 15.25H9Z" fill="black"/>
</svg>

<svg xmlns="http://www.w3.org/2000/svg" width="24" height="24" viewBox="0 0 24 24"><path d="M8.652 4.593c0-.328.273-.593.609-.593h5.478c.336 0 .609.265.609.593v.592h3.043c.337 0 .609.266.609.593v13.629a.6.6 0 0 1-.609.593H5.609A.601.601 0 0 1 5 19.407V5.778c0-.327.273-.593.609-.593h3.043Zm6.696 4.148a.6.6 0 0 1-.609.592H9.261a.6.6 0 0 1-.609-.592V6.37H6.217v12.445h11.566V6.37h-2.435ZM9.87 5.185v2.963h4.26V5.185ZM9 12.25h6a.75.75 0 0 1 0 1.5H9a.75.75 0 0 1 0-1.5Zm0 3h6a.75.75 0 0 1 0 1.5H9a.75.75 0 0 1 0-1.5Z"/></svg>
